X:1
T:Title
%%score { 1 | 2 }
L:1/8
Q:1/4=126
M:3/4
K:Eb
V:1 treble nm="Grand Piano"
V:2 bass 
V:1
 [EG]2 [EG]2 F2 | E4 D2 | C4 E2 | D6 | A2 A2 [EG]2 | F4 F2 | B4 A2 | G6 | c2 c2 d2 | [Ge]4 d2 | %10
w: ????~???? * *||||||||||
 c4 =B2 | [Ec]6 | c2 B2 A2 | [EG]4 F2 | E4 D2 | C6 | [EG]2 [FA]2 [EG]2 | F6 | F2 G2 F2 | E6 | %20
w: ||||||||||
 E2 F2 E2 | D6 | D2 E2 [DF]2 | [EG]6 | [EG]2 [FA]2 [EG]2 | F6 | F2 G2 F2 | E6 | E2 F2 E2 | D6 | %30
w: ||||||||||
 G2 G2 [DG]2 | [G,C]6 |] %32
w: ||
V:2
 [C,G,]2 [C,G,]2 [C,G,C]2 | [C,G,C]4 [D,F,=B,]2 | [C,E,G,]4 [C,G,C]2 | [D,F,=B,]6 | %4
 [C,F,C]2 [C,F,C]2 [C,G,]2 | [C,A,C]4 [F,A,C]2 | [F,B,]4[K:treble] [F,CF]2 | [G,CE]6 | %8
 [G,CE]2 [G,CE]2 [G,=B,F]2 | [E,C]4 [F,=B,F]2 | [G,CE]4 [DG]2 | [C,G,C]6 | %12
 [G,CE]2[K:treble] [B,DF]2 [CF]2 | [C,G,C]4 [C,A,C]2 | [C,G,C]4 [D,F,=B,]2 | [C,E,G,]6 | %16
 [C,G,]2 [C,F,]2 [C,G,]2 | [C,A,C]6 | [F,A,C]2 [E,G,C]2 [C,A,C]2 | [C,G,C]6 | %20
 [E,G,C]2 [C,A,C]2 [C,G,C]2 | [D,F,G,=B,]6 | [F,G,=B,]2 [E,G,C]2 [=B,,G,]2 | [C,E,G,]6 | %24
 [C,G,]2 [C,F,]2 [C,G,]2 | [C,A,C]6 | [F,A,C]2 [E,G,C]2 [C,A,C]2 | [C,G,C]6 | %28
 [E,G,C]2 [C,A,C]2 [C,G,C]2 | [D,F,G,=B,]6 | [F,G,=B,]2 [E,G,C]2 [=B,,G,]2 | [C,E,]6 |] %32

